X:19
T:Guess again. Ru1.019
%%VWML:RutherfordVol1-2248-p10-0p10
Z:Transcription by Village Music Project, Steve Mansfield July 2015
F:http://www.village-music-project.org.uk/
F:http://www.vwml.org/record/RutherfordVol1/2248/p10
L:1/8
W:The first Cu. sets to the 2d Wo. and not
W:Turn .| The same to the Man :| Gallop down
W:And up again and cast off :||: Hands across
W:Half round with the Top Cu. .|| And back
W:Again :|| right Hand and Left :|
Q:1/4=100
K:D
|:D/E/F/G/ Ad | Be d/c/B/A/ | D/E/F/G/ Ad | Bc d2 :|
|: f/e/f/d/ ec | d/c/d/B/ cA | f/e/f/d/ eA | Bc d2 :|
T:Northampton Frolick. Ru1.020
B:Rutherford's Country Dances Vol 1, 1756
Z:village music project, Steve Mansfield July 2015
M:6/8
L:1/8
W:Cast off one Cu. and Hands across with the 3d Cu. .|
W:Cast up and Hands across with the 2d Cu. :| Cross
W:Over half Figure .|. Right Hand and Left :|
Q:3/8=90
K:C
|:(c/d/e)c dBG | A2B c2B | (c/d/e)c (e/f/g)e | d3 G3 |
(c/d/e)c dBG | A2B c2f | (e/f/g)e dcB | c3 C3 :|
|: e/f/f2 gec | B/c/c2 dBG | cBc Adc | B/c/dB G2F |
EGc FAc | GBe Adf | edc dcB | c3 C3 :|
